public/images/ifos/ditto.svg

<svg width="96" height="96" viewBox="0 0 96 96" fill="none" xmlns="http://www.w3.org/2000/svg">
<path d="M48.4827 95.5719C74.7258 95.5719 96 74.2285 96 47.9C96 21.5715 74.7258 0.228027 48.4827 0.228027C22.2396 0.228027 0.965332 21.5715 0.965332 47.9C0.965332 74.2285 22.2396 95.5719 48.4827 95.5719Z" fill="#EE7CC1"/>
<path fill-rule="evenodd" clip-rule="evenodd" d="M47.8443 0.656121C21.7818 0.656121 0.653993 21.8527 0.653993 48C0.653993 74.1473 21.7818 95.3439 47.8443 95.3439C73.9068 95.3439 95.0347 74.1473 95.0347 48C95.0347 21.8527 73.9068 0.656121 47.8443 0.656121ZM0 48C0 21.4903 21.4206 0 47.8443 0C74.268 0 95.6887 21.4903 95.6887 48C95.6887 74.5097 74.268 96 47.8443 96C21.4206 96 0 74.5097 0 48Z" fill="black"/>
<path d="M31.3856 38.0233C32.4431 38.0233 33.3004 37.1632 33.3004 36.1022C33.3004 35.0413 32.4431 34.1812 31.3856 34.1812C30.328 34.1812 29.4707 35.0413 29.4707 36.1022C29.4707 37.1632 30.328 38.0233 31.3856 38.0233Z" fill="black"/>
<path d="M64.5755 38.0233C65.633 38.0233 66.4904 37.1632 66.4904 36.1022C66.4904 35.0413 65.633 34.1812 64.5755 34.1812C63.518 34.1812 62.6606 35.0413 62.6606 36.1022C62.6606 37.1632 63.518 38.0233 64.5755 38.0233Z" fill="black"/>
<path fill-rule="evenodd" clip-rule="evenodd" d="M16.1908 47.0152C16.1908 47.0152 12.9578 50.1518 19.9548 53.4011C19.9548 53.4011 32.621 58.9822 49.5672 58.476C69.3868 57.8839 78.6171 52.2333 80.6321 50.4831C83.1232 48.3192 82.2142 44.5892 75.15 45.817C66.9582 47.2408 62.1165 48.3614 49.8015 48.742C39.6543 49.0557 28.2368 48.4368 23.344 47.3112C16.9405 45.8381 16.1908 47.0152 16.1908 47.0152Z" fill="#B32C43"/>
<path fill-rule="evenodd" clip-rule="evenodd" d="M19.0225 53.8505C19.0225 53.8505 29.9084 51.4047 47.5259 51.2778C65.1434 51.151 77.2476 52.9695 77.2476 52.9695C77.2476 52.9695 65.0026 58.8729 48.3771 58.862C27.7238 58.8485 19.0225 53.8505 19.0225 53.8505Z" fill="#F06C75"/>
<path fill-rule="evenodd" clip-rule="evenodd" d="M15.6155 46.6107C15.6847 46.5021 15.9378 46.2039 16.7005 46.0225C17.5721 45.8152 19.4707 45.7099 23.5022 46.6374C28.3615 47.7553 39.7015 48.3621 49.7793 48.0506C62.0462 47.6714 66.8688 46.5538 75.0286 45.1356C78.958 44.4526 81.1489 45.2984 82.0377 46.466C83.0456 47.7901 82.6675 49.6759 81.0961 51.041C79.0514 52.8169 69.6995 58.6064 49.5879 59.2072C32.4657 59.7187 19.6692 54.0725 19.6565 54.0668C15.7595 52.2571 14.8143 50.3751 14.7403 49.0493C14.67 47.7882 15.371 46.885 15.6155 46.6107ZM16.1905 47.035C16.1905 47.035 12.9575 50.1716 19.9544 53.4209C19.9544 53.4209 32.6207 59.0021 49.5668 58.4958C69.3865 57.9038 78.6167 52.2531 80.6317 50.5029C83.1229 48.339 82.2138 44.609 75.1496 45.8368C66.9578 47.2606 62.1162 48.3813 49.8011 48.7619C39.654 49.0756 28.2365 48.4567 23.3436 47.3311C16.9402 45.8579 16.1905 47.035 16.1905 47.035Z" fill="black"/>
<path fill-rule="evenodd" clip-rule="evenodd" d="M68.6797 46.9434C68.6797 46.9434 75.0763 45.6425 78.247 46.8388C82.7251 48.5282 78.7611 51.9383 78.7611 51.9383C78.7611 51.9383 81.8948 50.3141 82.2184 48.457C82.2184 48.457 82.8858 45.143 76.9905 45.3566C73.7476 45.474 68.6797 46.9434 68.6797 46.9434Z" fill="black"/>
<path fill-rule="evenodd" clip-rule="evenodd" d="M76.227 39.1288C77.9868 38.7683 79.5278 39.0278 79.6662 39.7079C79.8046 40.3879 78.4882 41.2326 76.7284 41.5931C74.9686 41.9535 73.4276 41.6941 73.2892 41.014C73.1508 40.334 74.4672 39.4891 76.227 39.1288Z" fill="#FFD6F1"/>
<path fill-rule="evenodd" clip-rule="evenodd" d="M26.0971 7.45497C13.6433 13.7218 7.87758 24.7258 19.2921 23.4308C21.7921 23.1473 23.8615 18.3935 30.3104 14.9481C35.0285 12.4275 43.2114 10.6553 42.7748 7.03564C42.49 4.67361 40.4886 3.7293 35.4721 4.23323C31.4647 4.63579 26.0971 7.45497 26.0971 7.45497Z" fill="#FFD6F1"/>
</svg>

<svg xmlns="http://www.w3.org/2000/svg" width="96" height="96" fill="none"  xmlns:v="https://vecta.io/nano"><path d="M48.483 95.572C74.726 95.572 96 74.229 96 47.9S74.726.228 48.483.228.965 21.572.965 47.9 22.24 95.572 48.483 95.572z" fill="#ee7cc1"/><g fill="#000"><path fill-rule="evenodd" d="M47.844.656C21.782.656.654 21.853.654 48s21.128 47.344 47.19 47.344S95.035 74.147 95.035 48 73.907.656 47.844.656zM0 48C0 21.49 21.421 0 47.844 0s47.844 21.49 47.844 48-21.421 48-47.844 48S0 74.51 0 48z"/><path d="M31.386 38.023a1.921 1.921 0 1 0 0-3.842 1.921 1.921 0 1 0 0 3.842zm33.19 0a1.921 1.921 0 1 0 0-3.842 1.921 1.921 0 1 0 0 3.842z"/></g><g fill-rule="evenodd"><path d="M16.191 47.015s-3.233 3.137 3.764 6.386c0 0 12.666 5.581 29.612 5.075 19.82-.592 29.05-6.243 31.065-7.993 2.491-2.164 1.582-5.894-5.482-4.666-8.192 1.424-13.034 2.544-25.349 2.925-10.147.314-21.565-.305-26.457-1.431-6.404-1.473-7.153-.296-7.153-.296z" fill="#b32c43"/><path d="M19.023 53.851s10.886-2.446 28.503-2.573 29.722 1.692 29.722 1.692-12.245 5.903-28.871 5.893c-20.653-.014-29.355-5.012-29.355-5.012z" fill="#f06c75"/><g fill="#000"><path d="M15.616 46.611c.069-.109.322-.407 1.085-.588.872-.207 2.77-.313 6.802.615 4.859 1.118 16.199 1.725 26.277 1.413 12.267-.379 17.089-1.497 25.249-2.915 3.929-.683 6.12.163 7.009 1.33 1.008 1.324.63 3.21-.942 4.575-2.045 1.776-11.397 7.565-31.508 8.166-17.122.511-29.919-5.135-29.931-5.14-3.897-1.81-4.842-3.692-4.916-5.017-.07-1.261.631-2.164.875-2.439zm.575.424s-3.233 3.137 3.764 6.386c0 0 12.666 5.581 29.612 5.075 19.82-.592 29.05-6.243 31.065-7.993 2.491-2.164 1.582-5.894-5.482-4.666-8.192 1.424-13.033 2.545-25.349 2.925-10.147.314-21.565-.305-26.457-1.431-6.403-1.473-7.153-.296-7.153-.296z"/><path d="M68.68 46.943s6.397-1.301 9.567-.105c4.478 1.689.514 5.099.514 5.099s3.134-1.624 3.457-3.481c0 0 .667-3.314-5.228-3.1-3.243.117-8.311 1.587-8.311 1.587z"/></g><path d="M76.227 39.129c1.76-.36 3.301-.101 3.439.579s-1.178 1.525-2.938 1.885-3.301.101-3.439-.579 1.178-1.525 2.938-1.885zM26.097 7.455c-12.454 6.267-18.22 17.271-6.805 15.976 2.5-.284 4.569-5.037 11.018-8.483 4.718-2.521 12.901-4.293 12.464-7.912-.285-2.362-2.286-3.306-7.303-2.802-4.007.403-9.375 3.222-9.375 3.222z" fill="#ffd6f1"/></g></svg>
